icons/svg/24x24/play previous/outline.svg

<svg xmlns="http://www.w3.org/2000/svg" width="24" height="24" viewBox="0 0 24 24">
  <path fill-rule="evenodd" d="M12,9.8682 L8.803,12.0002 L12,14.1322 L12,9.8682 Z M14,8.0002 L14,12.0002 L14,16.0002 C14,16.3692 13.797,16.7082 13.472,16.8822 C13.324,16.9612 13.162,17.0002 13,17.0002 C12.806,17.0002 12.612,16.9432 12.445,16.8322 L6.445,12.8322 C6.167,12.6462 6,12.3342 6,12.0002 C6,11.6662 6.167,11.3532 6.445,11.1682 L12.445,7.1682 C12.752,6.9642 13.147,6.9442 13.472,7.1182 C13.797,7.2922 14,7.6312 14,8.0002 L14,8.0002 Z M20,9.8682 L16.803,12.0002 L20,14.1322 L20,9.8682 Z M22,8.0002 L22,16.0002 C22,16.3692 21.797,16.7082 21.472,16.8822 C21.324,16.9612 21.162,17.0002 21,17.0002 C20.806,17.0002 20.612,16.9432 20.445,16.8322 L14.445,12.8322 C14.167,12.6462 14,12.3342 14,12.0002 C14,11.6662 14.167,11.3532 14.445,11.1682 L20.445,7.1682 C20.752,6.9642 21.147,6.9442 21.472,7.1182 C21.797,7.2922 22,7.6312 22,8.0002 L22,8.0002 Z M6,5.0002 L6,12.0002 L6,19.0002 C6,19.5532 5.553,20.0002 5,20.0002 L3,20.0002 C2.447,20.0002 2,19.5532 2,19.0002 L2,5.0002 C2,4.4472 2.447,4.0002 3,4.0002 L5,4.0002 C5.553,4.0002 6,4.4472 6,5.0002 L6,5.0002 Z"/>
</svg>

<svg width="24" height="24" fill="none" xmlns="http://www.w3.org/2000/svg">
  <path fill-rule="evenodd" clip-rule="evenodd" d="M12 9.868L8.803 12 12 14.132V9.868zM14 8v8a1 1 0 01-1.555.832l-6-4a1.001 1.001 0 010-1.664l6-4A1 1 0 0114 8zm6 1.868L16.803 12 20 14.132V9.868zM22 8v8a1 1 0 01-1.555.832l-6-4a1.001 1.001 0 010-1.664l6-4A1 1 0 0122 8zM6 5v14a1 1 0 01-1 1H3a1 1 0 01-1-1V5a1 1 0 011-1h2a1 1 0 011 1z" fill="#000"/>
</svg>
